X:4402
T:Moving Bog, The
O:england
R:reel
D:Paddy Glackin: In Full Spate
M:C|
K:D
D2FA dDFA|dgfd ecAc|dAAd BGED|CEAF GFEF|
D2FA dDFA|dgfd ecAc|dAAd BGED|1 CEAG FDDC:|2 CEAG FDFA||
|:defd fafd|gabg ecAc|d2fd fafd|efge fdec|
defd fafd|gabg ecAc|dAAd BGED|1 CEAG FDFA:|2 CEAF GFEF||


